src/assets/img/svg/cms.svg

<svg xmlns="http://www.w3.org/2000/svg" width="116" height="116" viewBox="0 0 116 116">
    <g fill="none" fill-rule="evenodd" transform="translate(2 2)">
        <circle cx="56" cy="56" r="55" fill="#FFF" fill-opacity="0" stroke="#3EC3EE" stroke-width="2"/>
        <path fill="#FFF" fill-opacity="0" stroke="#4FC7ED" stroke-width="3" d="M55.49 103l.5-.5c-.338 0-.675-.004-1.011-.01l-.49-.49v.476c-24.12-.765-43.66-19.92-44.933-43.975H10l-.466-.457c-.016-.357-.027-.715-.034-1.074l-.52.531-.48-.468c.007.31.017.62.03.927L8 58.5h.554c1.277 24.613 21.265 44.21 45.936 44.977V104l.51-.51c.33.007.659.01.99.01l-.5-.5zm2-93.476c24.822.786 44.735 21.026 44.997 45.977h-.508v1.5l1.5.032v-.042l.5.01v-1.5h-.492c-.262-25.503-20.623-46.19-45.997-46.978V8l-.51.51c-.33-.007-.66-.01-.99-.01l.5.5-.5.5c.338 0 .674.004 1.01.01l.49.49v-.476z"/>
        <path fill="#3EC3EE" fill-rule="nonzero" d="M33.705 68.18c1.56 0 3.005-.265 4.335-.795s2.455-1.295 3.375-2.295l-1.41-1.41c-1.62 1.68-3.69 2.52-6.21 2.52-1.66 0-3.17-.38-4.53-1.14-1.36-.76-2.425-1.8-3.195-3.12s-1.155-2.8-1.155-4.44c0-1.64.385-3.12 1.155-4.44.77-1.32 1.835-2.36 3.195-3.12 1.36-.76 2.87-1.14 4.53-1.14 2.5 0 4.57.83 6.21 2.49l1.41-1.41c-.92-1-2.04-1.76-3.36-2.28-1.32-.52-2.76-.78-4.32-.78-2.08 0-3.96.46-5.64 1.38-1.68.92-2.995 2.195-3.945 3.825-.95 1.63-1.425 3.455-1.425 5.475 0 2.02.475 3.845 1.425 5.475.95 1.63 2.26 2.905 3.93 3.825 1.67.92 3.545 1.38 5.625 1.38zm14.58-.18V51.29l8.25 14.04h1.05l8.25-14.13V68h2.13V47h-1.83l-9.03 15.57L47.985 47h-1.83v21h2.13zm32.31.18c1.72 0 3.17-.255 4.35-.765 1.18-.51 2.055-1.2 2.625-2.07.57-.87.855-1.835.855-2.895 0-1.28-.33-2.295-.99-3.045-.66-.75-1.465-1.31-2.415-1.68-.95-.37-2.195-.745-3.735-1.125-1.3-.32-2.335-.615-3.105-.885s-1.41-.66-1.92-1.17c-.51-.51-.765-1.185-.765-2.025 0-1.12.465-2.035 1.395-2.745.93-.71 2.315-1.065 4.155-1.065.96 0 1.94.145 2.94.435 1 .29 1.94.725 2.82 1.305l.75-1.77c-.84-.58-1.835-1.035-2.985-1.365-1.15-.33-2.325-.495-3.525-.495-1.72 0-3.16.26-4.32.78-1.16.52-2.02 1.215-2.58 2.085-.56.87-.84 1.835-.84 2.895 0 1.3.335 2.33 1.005 3.09.67.76 1.475 1.325 2.415 1.695.94.37 2.2.755 3.78 1.155 1.32.32 2.35.615 3.09.885.74.27 1.365.655 1.875 1.155s.765 1.17.765 2.01c0 1.1-.47 1.995-1.41 2.685s-2.35 1.035-4.23 1.035c-1.34 0-2.64-.235-3.9-.705-1.26-.47-2.27-1.085-3.03-1.845l-.87 1.71c.78.82 1.885 1.48 3.315 1.98s2.925.75 4.485.75z"/>
    </g>
</svg>

<?xml version="1.0" encoding="UTF-8"?>
<svg width="116px" height="116px" viewBox="0 0 116 116" version="1.1" xmlns="http://www.w3.org/2000/svg" xmlns:xlink="http://www.w3.org/1999/xlink">
    <!-- Generator: Sketch 61.2 (89653) - https://sketch.com -->
    <title>icon-cms-big</title>
    <desc>Created with Sketch.</desc>
    <g id="icon-cms-big" stroke="none" stroke-width="1" fill="none" fill-rule="evenodd">
        <g id="Group-15" transform="translate(2.000000, 2.000000)">
            <circle id="Oval" stroke="#3EC3EE" stroke-width="2" fill-opacity="0" fill="#FFFFFF" cx="56" cy="56" r="55"></circle>
            <path d="M55.9897701,104 L55.9897701,102 C30.9191609,102 10.5329183,81.9438427 10.0004444,57.0009303 L8,57.0009303 C8.53285362,83.0485315 29.814573,104 55.9897701,104 Z M55.9897701,8 L55.9897701,10 C81.3948686,10 101.98977,30.5949015 101.98977,56 C101.98977,56.3344893 101.9862,56.6681447 101.979096,57.0009826 L103.97954,57.0009826 C103.986349,56.6681428 103.98977,56.3344709 103.98977,56 C103.98977,29.490332 82.4994381,8 55.9897701,8 Z" id="Shape" fill="#3EC3EE"></path>
            <path d="M33.705,68.18 C35.265,68.18 36.71,67.915 38.04,67.385 C39.37,66.855 40.495,66.09 41.415,65.09 L40.005,63.68 C38.385,65.36 36.315,66.2 33.795,66.2 C32.135,66.2 30.625,65.82 29.265,65.06 C27.905,64.3 26.84,63.26 26.07,61.94 C25.3,60.62 24.915,59.14 24.915,57.5 C24.915,55.86 25.3,54.38 26.07,53.06 C26.84,51.74 27.905,50.7 29.265,49.94 C30.625,49.18 32.135,48.8 33.795,48.8 C36.295,48.8 38.365,49.63 40.005,51.29 L41.415,49.88 C40.495,48.88 39.375,48.12 38.055,47.6 C36.735,47.08 35.295,46.82 33.735,46.82 C31.655,46.82 29.775,47.28 28.095,48.2 C26.415,49.12 25.1,50.395 24.15,52.025 C23.2,53.655 22.725,55.48 22.725,57.5 C22.725,59.52 23.2,61.345 24.15,62.975 C25.1,64.605 26.41,65.88 28.08,66.8 C29.75,67.72 31.625,68.18 33.705,68.18 Z M48.285,68 L48.285,51.29 L56.535,65.33 L57.585,65.33 L65.835,51.2 L65.835,68 L67.965,68 L67.965,47 L66.135,47 L57.105,62.57 L47.985,47 L46.155,47 L46.155,68 L48.285,68 Z M80.595,68.18 C82.315,68.18 83.765,67.925 84.945,67.415 C86.125,66.905 87,66.215 87.57,65.345 C88.14,64.475 88.425,63.51 88.425,62.45 C88.425,61.17 88.095,60.155 87.435,59.405 C86.775,58.655 85.97,58.095 85.02,57.725 C84.07,57.355 82.825,56.98 81.285,56.6 C79.985,56.28 78.95,55.985 78.18,55.715 C77.41,55.445 76.77,55.055 76.26,54.545 C75.75,54.035 75.495,53.36 75.495,52.52 C75.495,51.4 75.96,50.485 76.89,49.775 C77.82,49.065 79.205,48.71 81.045,48.71 C82.005,48.71 82.985,48.855 83.985,49.145 C84.985,49.435 85.925,49.87 86.805,50.45 L87.555,48.68 C86.715,48.1 85.72,47.645 84.57,47.315 C83.42,46.985 82.245,46.82 81.045,46.82 C79.325,46.82 77.885,47.08 76.725,47.6 C75.565,48.12 74.705,48.815 74.145,49.685 C73.585,50.555 73.305,51.52 73.305,52.58 C73.305,53.88 73.64,54.91 74.31,55.67 C74.98,56.43 75.785,56.995 76.725,57.365 C77.665,57.735 78.925,58.12 80.505,58.52 C81.825,58.84 82.855,59.135 83.595,59.405 C84.335,59.675 84.96,60.06 85.47,60.56 C85.98,61.06 86.235,61.73 86.235,62.57 C86.235,63.67 85.765,64.565 84.825,65.255 C83.885,65.945 82.475,66.29 80.595,66.29 C79.255,66.29 77.955,66.055 76.695,65.585 C75.435,65.115 74.425,64.5 73.665,63.74 L72.795,65.45 C73.575,66.27 74.68,66.93 76.11,67.43 C77.54,67.93 79.035,68.18 80.595,68.18 Z" id="CMS" fill="#3EC3EE" fill-rule="nonzero"></path>
        </g>
    </g>
</svg>
